docker.svg

<?xml version="1.0" encoding="UTF-8"?>
<svg xmlns="http://www.w3.org/2000/svg" version="1.1" viewBox="0 0 1200 400">
  <defs>
    <style>
      .cls-1 {
        fill: #d04c9b;
      }

      .cls-2 {
        fill: #4a2365;
      }

      .cls-3 {
        fill: #b96aab;
      }

      .cls-4 {
        isolation: isolate;
      }

      .cls-5 {
        fill: #a53995;
      }
    </style>
  </defs>
  <!-- Generator: Adobe Illustrator 28.7.1, SVG Export Plug-In . SVG Version: 1.2.0 Build 142)  -->
  <g>
    <g id="Layer_1">
      <g>
        <polygon id="polygon20" class="cls-5" points="191.2 242.29 190.55 213 159.76 193.83 160.4 223.12 191.2 242.29"/>
        <path id="path22" class="cls-5" d="M234.92,315.52l-.65-28.65-26.92-16.8c-.43-.21-.86-.64-1.08-.86l.65,28.86,28,17.45h0Z"/>
        <path id="path24" class="cls-5" d="M138.65,354.07l-70.42-43.72-1.73-73.23,34.46-14.86-.65-29.29-55.14,23.69c-4.3,1.94-6.89,5.81-6.67,10.33l2.15,87.87c0,4.53,2.8,9.06,7.11,11.64l84.43,52.33c3.88,2.37,8.61,3.02,12.71,1.94.43-.21.86-.21,1.29-.43l51.9-22.39-28.21-17.45-31.23,13.57h0Z"/>
        <path id="path26" class="cls-3" d="M366.29,192.11c-.21-5.17-3.23-10.55-8.39-13.57l-102.52-63.53-3.23,1.29.64,30.8,81.19,50.4,1.94,82.27,31.01,19.17,1.72-.64-2.37-106.18h0Z"/>
        <path id="path28" class="cls-3" d="M243.53,336.62l-95.41-59.01-2.37-99.07,43.51-18.74-.86-34.24-67.41,29.07c-4.95,2.16-7.97,6.68-7.75,12.06l2.8,116.3c0,5.38,3.23,10.56,8.4,13.57l111.78,69.35c4.52,2.79,10.12,3.66,14.86,2.15.43-.22.86-.43,1.29-.43l65.9-28.44-32.73-20.25-42,17.67h0Z"/>
        <path id="path30" class="cls-1" d="M511.67,110.69L368.45,21.96c-5.38-3.23-11.62-4.1-17-2.37-.44.21-1.08.43-1.51.64l-139.78,60.31c-5.6,2.37-9.04,7.54-8.83,13.78l3.44,149.04c.22,6.03,3.88,12.06,9.7,15.51l143.22,88.73c5.17,3.23,11.63,4.09,17.01,2.38.43-.22,1.08-.44,1.51-.65l139.78-60.3c5.59-2.37,9.05-7.75,8.84-13.79l-3.45-149.04c-.21-6.03-3.88-11.85-9.69-15.51M366.08,314.22l-124.48-77.11-3.02-129.44,121.47-52.33,124.49,77.1,3.02,129.45-121.47,52.33h0Z"/>
      </g>
      <path id="path10" class="cls-2" d="M607.46,182.14c0,4.62,1.08,9.04,3.23,12.83,2.16,3.78,4.95,7.15,8.18,9.88,3.44,2.74,7.33,4.84,11.84,6.32,4.52,1.47,9.26,2.31,14,2.31,6.46,0,12.27-1.48,17.01-4.41,4.73-2.96,9.26-6.96,13.35-11.79l15.93,11.79c-11.63,14.71-27.99,22.08-48.88,22.08-8.61,0-16.58-1.47-23.69-4.41-7.11-2.96-13.13-6.95-17.88-12-4.95-5.05-8.61-11.15-11.19-17.88-2.58-6.94-3.88-14.31-3.88-22.51s1.51-15.57,4.31-22.51c2.8-6.94,6.89-12.83,11.84-17.88s10.98-9.04,18.09-12c6.9-2.94,14.65-4.42,22.83-4.42,9.69,0,18.09,1.69,24.77,5.06,6.67,3.36,12.27,7.77,16.58,13.03,4.31,5.48,7.54,11.37,9.48,18.31,1.94,6.73,3.01,13.67,3.01,20.62v7.37h-88.93v.21h0ZM673.78,165.95c-.22-4.63-.86-8.64-2.15-12.42-1.29-3.79-3.23-7.15-6.03-9.89-2.59-2.74-6.02-5.05-9.91-6.53-3.88-1.69-8.61-2.31-13.78-2.31s-9.9,1.05-13.99,2.94c-4.31,1.88-7.97,4.42-10.77,7.36-3.01,2.94-5.17,6.31-6.89,10.1-1.72,3.79-2.37,7.37-2.37,10.95h65.89v-.21h0Z"/>
      <path id="path12" class="cls-2" d="M714.26,120.71h20.89v16.61h.43c2.58-5.68,7.32-10.52,13.78-13.88,6.46-3.58,14-5.26,22.61-5.26,5.39,0,10.34.84,15.29,2.31,4.95,1.68,9.26,4.01,12.71,7.36,3.66,3.37,6.46,7.57,8.83,12.84,2.16,5.26,3.23,11.36,3.23,18.51v69.44h-20.89v-63.76c0-5.05-.65-9.25-2.15-12.83-1.3-3.58-3.23-6.53-5.6-8.64-2.37-2.1-4.95-3.79-7.97-4.83-3.01-1.06-6.24-1.48-9.47-1.48-4.3,0-8.4.63-12.06,2.1-3.66,1.48-6.89,3.58-9.68,6.53-2.8,2.94-4.96,6.73-6.47,11.35-1.5,4.63-2.37,9.89-2.37,16.21v55.55h-20.88v-108.15h-.22v.02Z"/>
      <polygon id="polygon14" class="cls-2" points="843.03 120.71 875.98 203.4 907.63 120.71 930.03 120.71 886.74 228.64 863.71 228.64 818.7 120.71 843.03 120.71"/>
      <path id="path16" class="cls-2" d="M931.53,174.77c0-7.78,1.51-15.15,4.53-22.09,3.01-6.73,7.1-12.83,12.49-17.88,5.38-5.06,11.41-9.26,18.73-12.2,7.12-2.95,14.86-4.42,23.04-4.42s15.93,1.47,23.04,4.42c7.1,2.94,13.36,6.93,18.73,12.2,5.17,5.25,9.48,11.15,12.5,17.88,3.01,6.73,4.53,14.1,4.53,22.09s-1.52,15.36-4.53,22.1c-3.02,6.94-7.11,12.83-12.5,17.88-5.37,5.05-11.4,9.04-18.73,12-7.11,2.94-14.85,4.41-23.04,4.41s-15.93-1.47-23.04-4.41c-7.1-2.96-13.35-6.95-18.73-12-5.39-5.05-9.48-11.15-12.49-17.88-3.01-6.94-4.53-14.31-4.53-22.1M953.71,174.77c0,5.47.86,10.52,2.59,15.15,1.71,4.62,4.09,8.62,7.31,11.79,3.02,3.37,6.9,5.89,11.42,7.78,4.52,1.89,9.48,2.94,15.08,2.94s10.55-.84,15.07-2.94c4.51-1.89,8.4-4.41,11.42-7.78,3-3.16,5.59-7.16,7.31-11.79,1.73-4.63,2.59-9.68,2.59-15.15s-.86-10.52-2.59-15.15c-1.71-4.63-4.09-8.63-7.31-11.78-3.02-3.15-6.9-5.89-11.42-7.78-4.52-1.89-9.48-2.94-15.07-2.94s-10.56,1.05-15.08,2.94c-4.52,1.9-8.39,4.42-11.42,7.78-3,3.37-5.59,7.15-7.31,11.78-1.73,4.63-2.59,9.68-2.59,15.15"/>
      <path id="path18" class="cls-2" d="M1050.39,120.71h24.12l32.74,84.15h.42l31.44-84.15h22.4l-52.32,131.07c-1.94,4.63-3.88,9.05-5.82,12.84s-4.31,7.15-7.11,9.88c-2.79,2.73-6.25,4.84-10.12,6.31-3.88,1.48-8.82,2.31-14.43,2.31-3.02,0-6.24-.21-9.48-.62-3.22-.41-6.25-1.26-9.25-2.31l2.58-18.74c4.09,1.69,8.4,2.53,12.49,2.53,3.24,0,6.03-.42,8.18-1.26,2.16-.84,4.09-2.1,5.81-3.58,1.73-1.69,3.03-3.36,4.09-5.46,1.08-2.12,2.15-4.63,3.23-7.37l6.88-17.04-45.86-108.56h0Z"/>
      <g class="cls-4">
        <path class="cls-5" d="M636.86,328.23c0,8.4-2.15,14.77-6.44,19.14-4.3,4.36-10.51,6.54-18.65,6.54-4.53,0-8.61-.66-12.25-1.97-3.64-1.31-7.1-3.58-10.38-6.79l5.51-6.3c2.43,2.62,5,4.61,7.72,5.95,2.72,1.34,5.85,2.02,9.4,2.02s6.25-.51,8.51-1.52c2.26-1.02,4.05-2.4,5.36-4.13,1.31-1.74,2.23-3.72,2.75-5.95.52-2.23.79-4.56.79-6.99v-5.9h-.2c-1.84,2.95-4.23,5.12-7.18,6.49-2.95,1.38-5.97,2.07-9.05,2.07-3.61,0-6.92-.59-9.94-1.77-3.02-1.18-5.61-2.82-7.77-4.92-2.16-2.1-3.84-4.59-5.02-7.48-1.18-2.89-1.77-6.03-1.77-9.45,0-3.74.59-7.12,1.77-10.13,1.18-3.02,2.84-5.56,4.97-7.62,2.13-2.07,4.71-3.66,7.72-4.77,3.02-1.11,6.36-1.67,10.04-1.67,1.57,0,3.15.18,4.72.54,1.57.36,3.1.92,4.58,1.67,1.48.75,2.8,1.71,3.98,2.85,1.18,1.15,2.17,2.48,2.95,3.98h.2v-7.87h7.67v43.98ZM596.52,307.28c0,2.36.43,4.54,1.28,6.54.85,2,2.02,3.74,3.49,5.21,1.48,1.48,3.2,2.64,5.17,3.49,1.97.85,4.07,1.28,6.3,1.28,2.62,0,4.95-.46,6.99-1.38,2.03-.92,3.75-2.15,5.17-3.69,1.41-1.54,2.48-3.31,3.2-5.31.72-2,1.08-4.12,1.08-6.35,0-2.49-.39-4.77-1.18-6.84-.79-2.07-1.9-3.85-3.34-5.36-1.44-1.51-3.18-2.67-5.21-3.49-2.03-.82-4.26-1.23-6.69-1.23s-4.64.44-6.64,1.33c-2,.88-3.71,2.1-5.12,3.64-1.41,1.54-2.51,3.35-3.3,5.41-.79,2.07-1.18,4.31-1.18,6.74Z"/>
        <path class="cls-5" d="M650.44,290.16c2.36-2.43,5.17-4.21,8.41-5.36,3.25-1.15,6.54-1.72,9.89-1.72,6.82,0,11.74,1.61,14.76,4.82,3.02,3.21,4.53,8.1,4.53,14.66v19.78c0,1.31.06,2.67.2,4.08.13,1.41.3,2.71.49,3.89h-7.38c-.26-1.05-.41-2.21-.44-3.49-.03-1.28-.05-2.41-.05-3.39h-.2c-1.51,2.36-3.53,4.3-6.05,5.81-2.53,1.51-5.56,2.26-9.1,2.26-2.36,0-4.58-.29-6.64-.89-2.07-.59-3.87-1.46-5.41-2.61-1.54-1.15-2.77-2.57-3.69-4.28-.92-1.71-1.38-3.67-1.38-5.9,0-3.8.98-6.79,2.95-8.95,1.97-2.16,4.41-3.77,7.33-4.82,2.92-1.05,6.07-1.7,9.45-1.97,3.38-.26,6.48-.39,9.3-.39h2.95v-1.38c0-3.35-1-5.87-3-7.58-2-1.71-4.81-2.56-8.41-2.56-2.49,0-4.94.41-7.33,1.23-2.4.82-4.51,2.08-6.35,3.79l-4.82-5.02ZM672.67,308.16c-4.92,0-8.82.69-11.71,2.07-2.89,1.38-4.33,3.64-4.33,6.79,0,2.89.97,4.94,2.9,6.15,1.93,1.21,4.34,1.82,7.23,1.82,2.23,0,4.18-.38,5.85-1.13,1.67-.75,3.07-1.75,4.18-3,1.12-1.25,1.97-2.71,2.56-4.38.59-1.67.92-3.46.98-5.36v-2.95h-7.67Z"/>
        <path class="cls-5" d="M727.28,290.75h-13.58v23.02c0,1.51.03,2.9.1,4.18.06,1.28.33,2.39.79,3.34.46.95,1.15,1.71,2.07,2.26.92.56,2.23.84,3.94.84,1.11,0,2.26-.13,3.44-.39,1.18-.26,2.3-.66,3.35-1.18l.29,6.99c-1.31.59-2.77,1.02-4.38,1.28-1.61.26-3.13.39-4.58.39-2.75,0-4.95-.36-6.59-1.08-1.64-.72-2.92-1.74-3.84-3.05-.92-1.31-1.52-2.93-1.82-4.87-.29-1.93-.44-4.08-.44-6.44v-25.29h-10.04v-6.49h10.04v-13.09h7.67v13.09h13.58v6.49Z"/>
        <path class="cls-5" d="M777.85,321.94c-2.75,3.54-5.77,6.02-9.05,7.43-3.28,1.41-7.08,2.12-11.41,2.12-3.61,0-6.85-.64-9.74-1.92-2.89-1.28-5.33-3-7.33-5.17-2-2.17-3.54-4.72-4.62-7.67-1.08-2.95-1.62-6.1-1.62-9.45,0-3.54.59-6.8,1.77-9.79,1.18-2.98,2.82-5.54,4.92-7.67,2.1-2.13,4.59-3.79,7.48-4.97,2.89-1.18,6.03-1.77,9.45-1.77,3.21,0,6.17.54,8.86,1.62,2.69,1.08,5,2.66,6.94,4.72,1.93,2.07,3.43,4.59,4.48,7.58,1.05,2.99,1.57,6.38,1.57,10.18v2.46h-37.19c.13,1.97.61,3.85,1.43,5.66.82,1.81,1.88,3.38,3.2,4.72,1.31,1.35,2.85,2.41,4.62,3.2,1.77.79,3.71,1.18,5.8,1.18,3.35,0,6.17-.59,8.46-1.77,2.29-1.18,4.36-2.92,6.2-5.21l5.8,4.53ZM771.26,303.14c-.13-3.94-1.41-7.08-3.84-9.45-2.43-2.36-5.77-3.54-10.04-3.54s-7.71,1.18-10.33,3.54c-2.62,2.36-4.2,5.51-4.72,9.45h28.93Z"/>
        <path class="cls-5" d="M840.82,330.3h-7.58l-13.09-35.42h-.2l-11.61,35.42h-7.87l-14.96-46.05h8.46l10.53,35.42h.2l11.91-35.42h8.07l12.1,35.42h.2l10.43-35.42h8.26l-14.86,46.05Z"/>
        <path class="cls-5" d="M863.74,290.16c2.36-2.43,5.17-4.21,8.41-5.36,3.25-1.15,6.54-1.72,9.89-1.72,6.82,0,11.74,1.61,14.76,4.82,3.02,3.21,4.53,8.1,4.53,14.66v19.78c0,1.31.06,2.67.2,4.08.13,1.41.29,2.71.49,3.89h-7.38c-.26-1.05-.41-2.21-.44-3.49-.04-1.28-.05-2.41-.05-3.39h-.2c-1.51,2.36-3.53,4.3-6.05,5.81-2.53,1.51-5.56,2.26-9.1,2.26-2.36,0-4.58-.29-6.64-.89-2.07-.59-3.87-1.46-5.41-2.61-1.54-1.15-2.77-2.57-3.69-4.28-.92-1.71-1.38-3.67-1.38-5.9,0-3.8.98-6.79,2.95-8.95,1.97-2.16,4.41-3.77,7.33-4.82,2.92-1.05,6.07-1.7,9.45-1.97,3.38-.26,6.48-.39,9.3-.39h2.95v-1.38c0-3.35-1-5.87-3-7.58-2-1.71-4.8-2.56-8.41-2.56-2.49,0-4.94.41-7.33,1.23-2.4.82-4.51,2.08-6.35,3.79l-4.82-5.02ZM885.98,308.16c-4.92,0-8.82.69-11.71,2.07-2.89,1.38-4.33,3.64-4.33,6.79,0,2.89.97,4.94,2.9,6.15,1.93,1.21,4.34,1.82,7.23,1.82,2.23,0,4.18-.38,5.85-1.13,1.67-.75,3.07-1.75,4.18-3,1.12-1.25,1.97-2.71,2.56-4.38.59-1.67.92-3.46.98-5.36v-2.95h-7.68Z"/>
        <path class="cls-5" d="M932.32,340.83c-.79,1.97-1.59,3.75-2.41,5.36-.82,1.61-1.8,2.98-2.95,4.13-1.15,1.15-2.53,2.03-4.13,2.66-1.61.62-3.56.93-5.85.93-1.12,0-2.28-.07-3.49-.2-1.21-.13-2.35-.46-3.39-.98l.98-6.69c.79.33,1.61.54,2.46.64.85.1,1.84.15,2.95.15,2.49,0,4.33-.69,5.51-2.07,1.18-1.38,2.2-3.21,3.05-5.51l3.15-8.66-19.09-46.34h8.95l14.27,36.11h.2l13.68-36.11h8.36l-22.24,56.57Z"/>
      </g>
    </g>
  </g>
</svg>

<?xml version="1.0" encoding="UTF-8" standalone="no"?>
<!DOCTYPE svg PUBLIC "-//W3C//DTD SVG 1.1//EN" "http://www.w3.org/Graphics/SVG/1.1/DTD/svg11.dtd">
<svg width="100%" height="100%" viewBox="0 0 493 370" version="1.1" xmlns="http://www.w3.org/2000/svg" xmlns:xlink="http://www.w3.org/1999/xlink" xml:space="preserve" xmlns:serif="http://www.serif.com/" style="fill-rule:evenodd;clip-rule:evenodd;stroke-linejoin:round;stroke-miterlimit:2;">
    <g transform="matrix(1,0,0,1,-36,-9)">
        <g id="Layer_1">
            <g>
                <path id="polygon20" d="M191.2,242.29L190.55,213L159.76,193.83L160.4,223.12L191.2,242.29Z" style="fill:rgb(165,57,149);fill-rule:nonzero;"/>
                <path id="path22" d="M234.92,315.52L234.27,286.87L207.35,270.07C206.92,269.86 206.49,269.43 206.27,269.21L206.92,298.07L234.92,315.52Z" style="fill:rgb(165,57,149);fill-rule:nonzero;"/>
                <path id="path24" d="M138.65,354.07L68.23,310.35L66.5,237.12L100.96,222.26L100.31,192.97L45.17,216.66C40.87,218.6 38.28,222.47 38.5,226.99L40.65,314.86C40.65,319.39 43.45,323.92 47.76,326.5L132.19,378.83C136.07,381.2 140.8,381.85 144.9,380.77C145.33,380.56 145.76,380.56 146.19,380.34L198.09,357.95L169.88,340.5L138.65,354.07Z" style="fill:rgb(165,57,149);fill-rule:nonzero;"/>
                <path id="path26" d="M366.29,192.11C366.08,186.94 363.06,181.56 357.9,178.54L255.38,115.01L252.15,116.3L252.79,147.1L333.98,197.5L335.92,279.77L366.93,298.94L368.65,298.3L366.28,192.12L366.29,192.11Z" style="fill:rgb(185,106,171);fill-rule:nonzero;"/>
                <path id="path28" d="M243.53,336.62L148.12,277.61L145.75,178.54L189.26,159.8L188.4,125.56L120.99,154.63C116.04,156.79 113.02,161.31 113.24,166.69L116.04,282.99C116.04,288.37 119.27,293.55 124.44,296.56L236.22,365.91C240.74,368.7 246.34,369.57 251.08,368.06C251.51,367.84 251.94,367.63 252.37,367.63L318.27,339.19L285.54,318.94L243.54,336.61L243.53,336.62Z" style="fill:rgb(185,106,171);fill-rule:nonzero;"/>
                <path id="path30" d="M511.67,110.69L368.45,21.96C363.07,18.73 356.83,17.86 351.45,19.59C351.01,19.8 350.37,20.02 349.94,20.23L210.16,80.54C204.56,82.91 201.12,88.08 201.33,94.32L204.77,243.36C204.99,249.39 208.65,255.42 214.47,258.87L357.69,347.6C362.86,350.83 369.32,351.69 374.7,349.98C375.13,349.76 375.78,349.54 376.21,349.33L515.99,289.03C521.58,286.66 525.04,281.28 524.83,275.24L521.38,126.2C521.17,120.17 517.5,114.35 511.69,110.69M366.08,314.22L241.6,237.11L238.58,107.67L360.05,55.34L484.54,132.44L487.56,261.89L366.09,314.22L366.08,314.22Z" style="fill:rgb(208,76,155);fill-rule:nonzero;"/>
            </g>
        </g>
    </g>
</svg>
